src/assets/first.svg

<svg width="71" height="59" viewBox="0 0 71 59" fill="none" xmlns="http://www.w3.org/2000/svg">
<path d="M3.39062 3.68311H67.8924M3.39062 55.8988H67.8924M35.6415 3.68311V55.8988M49.4633 23.6479V35.934M7.99789 3.68311H63.2851V55.8988H7.99789V3.68311Z" stroke="#B29C3F" strokeWidth="6.14302" strokeLinecap="round" strokeLinejoin="round"/>
<path d="M44.8565 28.2552L49.4638 23.6479L54.071 28.2552M21.8202 35.934V23.6479M21.8202 35.934L17.2129 31.3267M21.8202 35.934L26.4274 31.3267" stroke="#B29C3F" strokeWidth="6.14302" strokeLinecap="round" strokeLinejoin="round"/>
</svg>

<svg width="71" height="59" fill="none" xmlns="http://www.w3.org/2000/svg"><path d="M3.39 3.683h64.502M3.391 55.9h64.501M35.642 3.683V55.9m13.821-32.251v12.286M7.998 3.684h55.287v52.215H7.998V3.683Z" stroke="#B29C3F"/><path d="m44.856 28.255 4.608-4.607 4.607 4.607m-32.25 7.679V23.648m0 12.286-4.608-4.607m4.607 4.607 4.607-4.607" stroke="#B29C3F"/></svg>
